Newaita/actions/24/folder-sync.svg

<svg height="24" viewBox="0 0 24 24" width="24" xmlns="http://www.w3.org/2000/svg"><path d="m10.34375 3.167969c-.839844 0-1.738281.046875-2.597656.476562-.84375.421875-1.476563 1.296875-1.699219 2.496094h-2.078125c-1.097656 0-1.984375.886719-1.984375 1.984375v10.914062c0 1.101563.886719 1.988282 1.984375 1.988282h7.9375v-1.988282h-6.945312c-.550782 0-.992188-.441406-.992188-.992187v-8.929687c0-.550782.441406-.992188.992188-.992188h1.085937c.222656 1.199219.855469 2.074219 1.699219 2.496094 1.058594.53125 2.175781.476562 3.167968.476562h8.929688v.003906h1.988281v-.863281c.007813-.085937.007813-.171875 0-.261719v-1.851562c0-1.097656-.886719-1.984375-1.988281-1.984375v2.980469h-8.929688c-.992187 0-1.855468-.050782-2.285156-.265625-.429687-.214844-.695312-.453125-.695312-1.722657 0-1.269531.265625-1.503906.695312-1.722656.429688-.214844 1.292969-.265625 2.285156-.265625.355469.003907.6875-.183593.867188-.488281.179688-.308594.179688-.691406 0-.996094-.179688-.308594-.511719-.496094-.867188-.492187-.183593 0-.375 0-.570312 0zm0 0" fill="#424242"/><path d="m10.914062 3.164062v1.984376h7.9375c.550782 0 .992188.441406.992188.992187v4.960937h1.988281v-5.953124c0-1.097657-.886719-1.984376-1.988281-1.984376zm0 0" fill="#424242"/><g fill="none" stroke="#424242" stroke-linecap="round" stroke-linejoin="round" stroke-width="42.132999" transform="matrix(.0468795 0 0 .0468795 0 10.079087)"><path d="m317.553009 152.381583c-.91658-17.331678 5.249498-35.079983 18.581558-48.412043 13.332061-13.415386 31.080366-19.581463 48.495369-18.581559"/><path d="m444.540882 145.215601c.916579 17.415004-5.249499 35.163309-18.581559 48.495369-13.33206 13.415386-31.080365 19.581463-48.495369 18.581559"/></g></svg>

<svg xmlns="http://www.w3.org/2000/svg" xmlns:xlink="http://www.w3.org/1999/xlink" width="24px" height="24px" viewBox="0 0 24 24" version="1.1">
<g id="surface1">
     <defs>
  <style id="current-color-scheme" type="text/css">
   .ColorScheme-Text { color:#424242; } .ColorScheme-Highlight { color:#eeeeee; }
  </style>
 </defs>
<path style="fill:currentColor" class="ColorScheme-Text" d="M 10.34375 3.167969 C 9.503906 3.167969 8.605469 3.214844 7.746094 3.644531 C 6.902344 4.066406 6.269531 4.941406 6.046875 6.140625 L 3.96875 6.140625 C 2.871094 6.140625 1.984375 7.027344 1.984375 8.125 L 1.984375 19.039062 C 1.984375 20.140625 2.871094 21.027344 3.96875 21.027344 L 11.90625 21.027344 L 11.90625 19.039062 L 4.960938 19.039062 C 4.410156 19.039062 3.96875 18.597656 3.96875 18.046875 L 3.96875 9.117188 C 3.96875 8.566406 4.410156 8.125 4.960938 8.125 L 6.046875 8.125 C 6.269531 9.324219 6.902344 10.199219 7.746094 10.621094 C 8.804688 11.152344 9.921875 11.097656 10.914062 11.097656 L 19.84375 11.097656 L 19.84375 11.101562 L 21.832031 11.101562 L 21.832031 10.238281 C 21.839844 10.152344 21.839844 10.066406 21.832031 9.976562 L 21.832031 8.125 C 21.832031 7.027344 20.945312 6.140625 19.84375 6.140625 L 19.84375 9.121094 L 10.914062 9.121094 C 9.921875 9.121094 9.058594 9.070312 8.628906 8.855469 C 8.199219 8.640625 7.933594 8.402344 7.933594 7.132812 C 7.933594 5.863281 8.199219 5.628906 8.628906 5.410156 C 9.058594 5.195312 9.921875 5.144531 10.914062 5.144531 C 11.269531 5.148438 11.601562 4.960938 11.78125 4.65625 C 11.960938 4.347656 11.960938 3.964844 11.78125 3.660156 C 11.601562 3.351562 11.269531 3.164062 10.914062 3.167969 C 10.730469 3.167969 10.539062 3.167969 10.34375 3.167969 Z M 10.34375 3.167969 "/>
     <defs>
  <style id="current-color-scheme" type="text/css">
   .ColorScheme-Text { color:#424242; } .ColorScheme-Highlight { color:#eeeeee; }
  </style>
 </defs>
<path style="fill:currentColor" class="ColorScheme-Text" d="M 10.914062 3.164062 L 10.914062 5.148438 L 18.851562 5.148438 C 19.402344 5.148438 19.84375 5.589844 19.84375 6.140625 L 19.84375 11.101562 L 21.832031 11.101562 L 21.832031 5.148438 C 21.832031 4.050781 20.945312 3.164062 19.84375 3.164062 Z M 10.914062 3.164062 "/>
<path style="fill:none;stroke-width:42.132999;stroke-linecap:round;stroke-linejoin:round;stroke:rgb(25.882354%,25.882354%,25.882354%);stroke-opacity:1;stroke-miterlimit:4;" d="M 317.552847 152.381509 C 316.636269 135.04984 322.802343 117.301544 336.134397 103.96949 C 349.46645 90.554112 367.214746 84.388037 384.629741 85.387941 " transform="matrix(0.0468795,0,0,0.0468795,0,10.079087)"/>
<path style="fill:none;stroke-width:42.132999;stroke-linecap:round;stroke-linejoin:round;stroke:rgb(25.882354%,25.882354%,25.882354%);stroke-opacity:1;stroke-miterlimit:4;" d="M 444.540656 145.215531 C 445.457235 162.630525 439.29116 180.378822 425.959107 193.710875 C 412.627053 207.126254 394.878757 213.292328 377.463762 212.292424 " transform="matrix(0.0468795,0,0,0.0468795,0,10.079087)"/>
</g>
</svg>
